Origami/64x64/apps/steamvr.svg

<svg width="64" height="64" version="1" xmlns="http://www.w3.org/2000/svg">
 <rect transform="matrix(0,-1,-1,0,0,0)" x="-53" y="-60" width="40" height="56" rx="11.429" ry="11.2" style="opacity:.2"/>
 <rect transform="matrix(0,-1,-1,0,0,0)" x="-52" y="-60" width="40" height="56" rx="11.429" ry="11.2" style="fill:#4f4f4f"/>
 <path d="m52 38.14285v-10.285714c0-3.798858-3.568-6.857142-8-6.857142h-24c-4.432 0-7.999999 3.058284-7.999999 6.857142v10.285714c0 3.798858 3.568 6.857144 7.999999 6.857144h5l7-4 7 4h5c4.432 0 8-3.058286 8-6.857144z" style="opacity:.2"/>
 <path d="m52 37.142856v-10.285714c0-3.798858-3.568-6.857142-8-6.857142h-24c-4.432 0-7.999999 3.058284-7.999999 6.857142v10.285714c0 3.798858 3.568 6.857144 7.999999 6.857144h5l7-4 7 4h5c4.432 0 8-3.058286 8-6.857144z" style="fill:#48aad5"/>
 <rect transform="rotate(90)" x="27" y="-8" width="10" height="6" rx="1.25" ry="1.5" style="opacity:.2"/>
 <rect transform="rotate(90)" x="26" y="-8" width="10" height="6" rx="1.25" ry="1.5" style="fill:#929292"/>
 <rect transform="rotate(90)" x="27" y="-62" width="10" height="6" rx="1.25" ry="1.5" style="opacity:.2"/>
 <rect transform="rotate(90)" x="26" y="-62" width="10" height="6" rx="1.25" ry="1.5" style="fill:#929292"/>
 <path d="M 15.199219 12 C 8.9944186 12 4 17.098259 4 23.429688 L 4 24.429688 C 4 18.098259 8.9944186 13 15.199219 13 L 48.800781 13 C 55.005581 13 60 18.098259 60 24.429688 L 60 23.429688 C 60 17.098259 55.005581 12 48.800781 12 L 15.199219 12 z" style="fill:#ffffff;opacity:.1"/>
</svg>

<svg xmlns="http://www.w3.org/2000/svg" width="64" height="64" version="1">
 <rect style="opacity:0.2" width="40" height="56" x="-53" y="-60" rx="11.429" ry="11.2" transform="matrix(0,-1,-1,0,0,0)"/>
 <rect style="fill:#4f4f4f" width="40" height="56" x="-52" y="-60" rx="11.429" ry="11.2" transform="matrix(0,-1,-1,0,0,0)"/>
 <path style="opacity:0.2" d="M 52,38.14285 V 27.857136 c 0,-3.798858 -3.568,-6.857142 -8,-6.857142 H 20 c -4.432,0 -7.999999,3.058284 -7.999999,6.857142 V 38.14285 c 0,3.798858 3.568,6.857144 7.999999,6.857144 h 5 l 7,-4 7,4 h 5 c 4.432,0 8,-3.058286 8,-6.857144 z"/>
 <path style="fill:#48aad5" d="M 52,37.142856 V 26.857142 C 52,23.058284 48.432,20 44,20 H 20 c -4.432,0 -7.999999,3.058284 -7.999999,6.857142 V 37.142856 C 12.000001,40.941714 15.568001,44 20,44 h 5 l 7,-4 7,4 h 5 c 4.432,0 8,-3.058286 8,-6.857144 z"/>
 <rect style="opacity:0.2" width="10" height="6" x="27" y="-8" rx="1.25" ry="1.5" transform="rotate(90)"/>
 <rect style="fill:#929292" width="10" height="6" x="26" y="-8" rx="1.25" ry="1.5" transform="rotate(90)"/>
 <rect style="opacity:0.2" width="10" height="6" x="27" y="-62" rx="1.25" ry="1.5" transform="rotate(90)"/>
 <rect style="fill:#929292" width="10" height="6" x="26" y="-62" rx="1.25" ry="1.5" transform="rotate(90)"/>
 <path style="opacity:0.1;fill:#ffffff" d="M 15.199219 12 C 8.9944186 12 4 17.098259 4 23.429688 L 4 24.429688 C 4 18.098259 8.9944186 13 15.199219 13 L 48.800781 13 C 55.005581 13 60 18.098259 60 24.429688 L 60 23.429688 C 60 17.098259 55.005581 12 48.800781 12 L 15.199219 12 z"/>
</svg>
